X:182
T:Drowsy Maggie
R:Reel
O:Scotland
O:Ireland
O:England
M:4/4
K:EDor
D|\
E2BE dEBE|E2BE AFDF|E2BE dEBE|BABc dAF:|\
A|\
d2fd c2ec|defd afge|
d2fd c2ec|BABc dAFA|\
d2fd c2ec|defd afge|afge fdec|BABc dAF||
